X:1
T:Golden Eagle -- Hornpipe
R:hornpipe
B:Cole's 1000 Fiddle Tunes
M:2/4
L:1/16
K:G
(uBA)|GB,DG BDGB|dGBd gbag|fed^c =cAFD|GBAG FDBA|
GB,DG BDGB|dGBd gbag|fd^c=c ADFA|G2B2G2:|
|:ub2|bB^df bagf|e^def gfg^g|aA^ce agfe|
edd^c .d2(ab)|"4"c'afd ^cdef|gfga bgag|fAce dFBA|G2B2G2:|
